icons/columns-16.svg

<svg width="16" height="17" viewBox="0 0 16 17" fill="none" xmlns="http://www.w3.org/2000/svg">
<g clip-path="url(#clip0)">
<path fill-rule="evenodd" clip-rule="evenodd" d="M0 2.5C0 1.5335 0.783502 0.75 1.75 0.75H5.75C6.7165 0.75 7.5 1.5335 7.5 2.5V15C7.5 15.9665 6.7165 16.75 5.75 16.75H1.75C0.783502 16.75 0 15.9665 0 15V2.5ZM1.75 2.25C1.61193 2.25 1.5 2.36193 1.5 2.5V15C1.5 15.1381 1.61193 15.25 1.75 15.25H5.75C5.88807 15.25 6 15.1381 6 15V2.5C6 2.36193 5.88807 2.25 5.75 2.25H1.75Z" fill="black"/>
<path fill-rule="evenodd" clip-rule="evenodd" d="M8.5 2.5C8.5 1.5335 9.2835 0.75 10.25 0.75H14.25C15.2165 0.75 16 1.5335 16 2.5V15C16 15.9665 15.2165 16.75 14.25 16.75H10.25C9.2835 16.75 8.5 15.9665 8.5 15V2.5ZM10.25 2.25C10.1119 2.25 10 2.36193 10 2.5V15C10 15.1381 10.1119 15.25 10.25 15.25H14.25C14.3881 15.25 14.5 15.1381 14.5 15V2.5C14.5 2.36193 14.3881 2.25 14.25 2.25H10.25Z" fill="black"/>
</g>
<defs>
<clipPath id="clip0">
<rect width="16" height="16" fill="white" transform="translate(0 0.75)"/>
</clipPath>
</defs>
</svg>

<svg xmlns="http://www.w3.org/2000/svg" width="16" height="17" viewBox="0 0 16 17"><path fill-rule="evenodd" d="M0 2.5C0 1.534.784.75 1.75.75h4c.966 0 1.75.784 1.75 1.75V15a1.75 1.75 0 01-1.75 1.75h-4A1.75 1.75 0 010 15V2.5zm1.75-.25a.25.25 0 00-.25.25V15c0 .138.112.25.25.25h4A.25.25 0 006 15V2.5a.25.25 0 00-.25-.25h-4zm6.75.25c0-.966.784-1.75 1.75-1.75h4c.966 0 1.75.784 1.75 1.75V15a1.75 1.75 0 01-1.75 1.75h-4A1.75 1.75 0 018.5 15V2.5zm1.75-.25a.25.25 0 00-.25.25V15c0 .138.112.25.25.25h4a.25.25 0 00.25-.25V2.5a.25.25 0 00-.25-.25h-4z"/></svg>
